X: 36353
T: Sean Maguire
R: reel
M: 4/4
K: Gmajor
Bd^cd edcd|gdBG DGBd|ce^de fede|aecAE4|
Bd^cd edcd|gdBG DGBd|c2Bc AcGc|FADFG4:|
|:gbbg abge|ed^cd BdGd|eAAG ABcd|egfa gfed|
gbbg abge|ed^cd BdGd|edcB cBAG|FADFG4:|

